remix/Editor/merge-cells-horizontal.svg

<svg viewBox="0 0 24 24" fill="currentColor" xmlns="http://www.w3.org/2000/svg"><path d="M20 3C20.5523 3 21 3.44772 21 4V20C21 20.5523 20.5523 21 20 21H4C3.44772 21 3 20.5523 3 20V4C3 3.44772 3.44772 3 4 3H20ZM11 5H5V10.999H7V9L10 12L7 15V13H5V19H11V17H13V19H19V13H17V15L14 12L17 9V10.999H19V5H13V7H11V5ZM13 13V15H11V13H13ZM13 9V11H11V9H13Z"/></svg>

<svg viewBox="0 0 24 24" xmlns="http://www.w3.org/2000/svg"><path fill="none" d="M0 0h24v24H0Z"/><path d="M20 3c.55 0 1 .44 1 1v16c0 .55-.45 1-1 1H4c-.552 0-1-.45-1-1V4c0-.552.44-1 1-1h16Zm-9 2H5v5.99h2v-2l3 3 -3 3v-2H5v6h6v-2h2v2h6v-6h-2v2l-3-3 3-3v1.99h2v-6h-6v2h-2v-2Zm2 8v2h-2v-2h2Zm0-4v2h-2V9h2Z"/></svg>
